img/header/quality.svg

<svg width="38" height="38" viewBox="0 0 38 38" fill="none" xmlns="http://www.w3.org/2000/svg">
<g opacity="0.2">
<rect x="1" y="1" width="36" height="36" rx="12" stroke="#1565D8" stroke-width="0.75"/>
</g>
<path fill-rule="evenodd" clip-rule="evenodd" d="M14.5336 16.7436C15.6375 15.1749 16.3266 13.3747 16.603 11.3368C16.6293 11.1427 16.7668 10.9812 16.9554 10.9229C18.8565 10.3345 19.9373 11.2694 19.9195 13.4012C19.916 13.815 19.8969 14.1828 19.8562 14.7454C19.7654 16.0019 19.7726 16.3448 19.9133 16.5755C20.0486 16.7973 20.4876 16.873 21.5259 16.6759C21.8535 16.6137 22.1822 16.5432 22.5462 16.4585C22.7069 16.4211 23.8644 16.1387 24.1603 16.0748C24.7246 15.953 25.1296 15.9014 25.4857 15.9232C26.4504 15.9824 26.9623 16.6035 27.0507 17.7935C27.2065 19.8891 26.7252 24.0985 26.245 25.6489C25.7543 27.2333 24.8986 27.8314 22.8444 27.8675C21.5237 27.8907 19.4925 27.8907 16.7412 27.8674C16.0389 27.8511 15.4024 27.7151 14.8363 27.4608C14.9952 27.1318 15.0842 26.7632 15.0842 26.374V18.31C15.0842 17.718 14.8783 17.1737 14.5336 16.7436Z" fill="#1565D8"/>
<path opacity="0.3" fill-rule="evenodd" clip-rule="evenodd" d="M11.5253 16.7981C10.6829 16.7981 10 17.475 10 18.3101V26.3741C10 27.2092 10.6829 27.8861 11.5253 27.8861H12.5421C13.3845 27.8861 14.0674 27.2092 14.0674 26.3741V18.3101C14.0674 17.475 13.3845 16.7981 12.5421 16.7981H11.5253Z" fill="#1565D8"/>
</svg>

<svg width="38" height="38" fill="none" xmlns="http://www.w3.org/2000/svg"><rect x="1" y="1" width="36" height="36" rx="12" stroke="#1565D8" stroke-width=".75" opacity=".2"/><path fill-rule="evenodd" clip-rule="evenodd" d="M14.534 16.744c1.103-1.57 1.793-3.37 2.069-5.407a.505.505 0 01.352-.414c1.902-.588 2.982.346 2.965 2.478a19.88 19.88 0 01-.064 1.344c-.09 1.257-.083 1.6.057 1.83.136.222.575.298 1.613.1.328-.061.656-.132 1.02-.216.16-.038 1.318-.32 1.614-.384.565-.122.97-.174 1.326-.152.964.06 1.476.68 1.565 1.87.155 2.096-.326 6.306-.806 7.856-.49 1.584-1.346 2.182-3.4 2.218-1.321.024-3.352.024-6.104 0-.702-.016-1.339-.152-1.905-.406.16-.33.248-.698.248-1.087V18.31c0-.592-.206-1.136-.55-1.566z" fill="#1565D8"/><path opacity=".3" fill-rule="evenodd" clip-rule="evenodd" d="M11.525 16.798c-.842 0-1.525.677-1.525 1.512v8.064c0 .835.683 1.512 1.525 1.512h1.017c.842 0 1.525-.677 1.525-1.512V18.31c0-.835-.683-1.512-1.525-1.512h-1.017z" fill="#1565D8"/></svg>
